X:1
T:Title
%%score 1 { 2 | 3 }
L:1/8
Q:1/4=110
M:3/4
K:A
V:1 treble nm="Grand Piano, Soprano"
V:2 bass nm="Choir Pad, Bass"
V:3 bass 
V:1
 [CE]2 [CE]4 | [DF]2 [FA]4 | [GB]2 [Ac]4 | [GB]2 A4 | [Ac]2 [Ac]4 | [GB]2 A4 | [EG]2 [EA]4 | %7
w: By~Henry~S.~Rupp,~1890 *|||||||
 [DF]2 [CE]4 | [CE]2 [CE]4 | [DF]2 [EA]4 | [Ec]2 [Ac]4 | [GB]2 A4 | [Ac]2 [Ae]4 | [Ac]2 [GB]2 A2 | %14
w: |||||||
 [GB]2 [Ac]4 | [EB]2 [EA]4- | [EA]4 z2 |] %17
w: |||
V:2
 A,2 A,4 | A,2 D4 | E2[K:treble] E4 | E2 C4 | E2 E4 | D2 C4 | B,2 A,4 | A,2 A,4 | E2[K:treble] C4 | %9
 E2 E2 C2 | E2 E4 | D2 C4 | E2 C4 | E2 E2 C2 | E2 E4 | D2 C4- | C4 z2 |] %17
V:3
 A,,2 A,,4 | D,2 D,4 | E,2 E,4 | E,2 [A,,A,]4 | A,2 A,4 | E,2 F,4 | E,2 C,4 | D,2 A,,4 | A,2 A,4 | %9
 A,2 E,4 | z2 E,4 | E,2 A,4 | A,2 A,4 | A,2 E,4 | E,2 E,4 | E,2 A,,4- | A,,4 z2 |] %17

